svg/fluentui-system-icons/ic_fluent_chat_add_48_regular.svg

<svg width="48" height="48" viewBox="0 0 48 48" fill="none" xmlns="http://www.w3.org/2000/svg">
<path d="M24 6.5C14.335 6.5 6.5 14.335 6.5 24C6.5 27.1879 7.35127 30.1732 8.83805 32.745C9.00741 33.0379 9.05076 33.387 8.95821 33.7125L6.84182 41.1548L14.2824 39.0389C14.6081 38.9463 14.9573 38.9897 15.2503 39.1592C17.7526 40.6069 20.6467 41.4528 23.7381 41.4981C24.2499 42.3833 24.8631 43.2025 25.5618 43.9399C25.0465 43.9797 24.5256 44 24 44C20.5503 44 17.3015 43.1256 14.4665 41.5857L6.23091 43.9276C4.9122 44.3027 3.69397 43.0844 4.06897 41.7657L6.41149 33.5283C4.87331 30.6945 4 27.4475 4 24C4 12.9543 12.9543 4 24 4C35.0457 4 44 12.9543 44 24C44 24.5256 43.9797 25.0465 43.9399 25.5618C43.2025 24.8631 42.3833 24.2499 41.4981 23.7381C41.358 14.1939 33.5775 6.5 24 6.5ZM46 35C46 41.0751 41.0751 46 35 46C28.9249 46 24 41.0751 24 35C24 28.9249 28.9249 24 35 24C41.0751 24 46 28.9249 46 35ZM36 28C36 27.4477 35.5523 27 35 27C34.4477 27 34 27.4477 34 28V34H28C27.4477 34 27 34.4477 27 35C27 35.5523 27.4477 36 28 36H34V42C34 42.5523 34.4477 43 35 43C35.5523 43 36 42.5523 36 42V36H42C42.5523 36 43 35.5523 43 35C43 34.4477 42.5523 34 42 34H36V28Z" fill="#212121"/>
</svg>

<svg xmlns="http://www.w3.org/2000/svg" width="48" height="48"><path d="M24 6.5C14.335 6.5 6.5 14.335 6.5 24c0 3.188.851 6.173 2.338 8.745.17.293.213.642.12.968l-2.116 7.442 7.44-2.116a1.25 1.25 0 0 1 .968.12 17.406 17.406 0 0 0 8.488 2.34 13.043 13.043 0 0 0 1.824 2.44A20.17 20.17 0 0 1 24 44a19.92 19.92 0 0 1-9.534-2.414l-8.235 2.342c-1.319.375-2.537-.844-2.162-2.162l2.342-8.238A19.917 19.917 0 0 1 4 24C4 12.954 12.954 4 24 4s20 8.954 20 20c0 .526-.02 1.047-.06 1.562a13.043 13.043 0 0 0-2.442-1.824C41.358 14.194 33.578 6.5 24 6.5ZM46 35c0 6.075-4.925 11-11 11s-11-4.925-11-11 4.925-11 11-11 11 4.925 11 11Zm-10-7a1 1 0 1 0-2 0v6h-6a1 1 0 1 0 0 2h6v6a1 1 0 1 0 2 0v-6h6a1 1 0 1 0 0-2h-6v-6Z"/></svg>
